storage/app/icons/phosphoricons/bold/headlights-bold.svg

<svg xmlns="http://www.w3.org/2000/svg" fill="currentColor" viewBox="0 0 256 256"><path d="M164 80a12 12 0 0 1 12-12h64a12 12 0 0 1 0 24h-64a12 12 0 0 1-12-12m76 84h-64a12 12 0 0 0 0 24h64a12 12 0 0 0 0-24m0-48h-64a12 12 0 0 0 0 24h64a12 12 0 0 0 0-24m-92-52v128a20 20 0 0 1-20 20H88a84 84 0 0 1-84-84.63C4.34 81.4 42.43 44 88.9 44H128a20 20 0 0 1 20 20m-24 4H88.9C55.57 68 28.25 94.71 28 127.54A60 60 0 0 0 88 188h36Z"/></svg>

<svg xmlns="http://www.w3.org/2000/svg" viewBox="0 0 256 256" fill="currentColor"><path d="M164,80a12,12,0,0,1,12-12h64a12,12,0,0,1,0,24H176A12,12,0,0,1,164,80Zm76,84H176a12,12,0,0,0,0,24h64a12,12,0,0,0,0-24Zm0-48H176a12,12,0,0,0,0,24h64a12,12,0,0,0,0-24ZM148,64V192a20,20,0,0,1-20,20H88A84,84,0,0,1,4,127.37C4.34,81.4,42.43,44,88.9,44H128A20,20,0,0,1,148,64Zm-24,4H88.9C55.57,68,28.25,94.71,28,127.54A60,60,0,0,0,88,188h36Z"/></svg>
